X:58
T:Gander In The Pratie Hole
M:6/8
L:1/8
R:Jig
K:D major
"D"(3FGA D FAD|"C"GFG EFG|"D"FAD FAF|GED {G}D2 E|(3FGA D FAD|"C"GFG Efg|"D"fed ecA|GED {G}D2 z:|!
[K:G]"D"Add {e} ded|"Am"cAB cAG|"D"Add {e}ded|cAB "Am"c2 B|"D"Add {e} ded|cAB cde|fed "A"e^cA|GED D2 z:|

